SVG_Azure_Grouped/Management/Application Insights Failure.svg

<?xml version="1.0" encoding="UTF-8" standalone="no"?>
<!-- Generated by Microsoft Visio, SVG Export Application Insights Failure.svg Page-1 -->

<svg
   xmlns:dc="http://purl.org/dc/elements/1.1/"
   xmlns:cc="http://creativecommons.org/ns#"
   xmlns:rdf="http://www.w3.org/1999/02/22-rdf-syntax-ns#"
   xmlns:svg="http://www.w3.org/2000/svg"
   xmlns="http://www.w3.org/2000/svg"
   xmlns:sodipodi="http://sodipodi.sourceforge.net/DTD/sodipodi-0.dtd"
   xmlns:inkscape="http://www.inkscape.org/namespaces/inkscape"
   width="0.78463179in"
   height="0.59063882in"
   viewBox="0 0 56.493448 42.526051"
   xml:space="preserve"
   class="st4"
   version="1.1"
   id="svg39"
   sodipodi:docname="Application Insights Failure.svg"
   style="font-size:12px;overflow:visible;color-interpolation-filters:sRGB;fill:none;fill-rule:evenodd;stroke-linecap:square;stroke-miterlimit:3"
   inkscape:version="0.92.5 (2060ec1f9f, 2020-04-08)"><metadata
   id="metadata45"><rdf:RDF><cc:Work
       rdf:about=""><dc:format>image/svg+xml</dc:format><dc:type
         rdf:resource="http://purl.org/dc/dcmitype/StillImage" /></cc:Work></rdf:RDF></metadata><defs
   id="defs43" /><sodipodi:namedview
   pagecolor="#ffffff"
   bordercolor="#666666"
   borderopacity="1"
   objecttolerance="10"
   gridtolerance="10"
   guidetolerance="10"
   inkscape:pageopacity="0"
   inkscape:pageshadow="2"
   inkscape:window-width="640"
   inkscape:window-height="480"
   id="namedview41"
   showgrid="false"
   inkscape:zoom="1.9937982"
   inkscape:cx="37.66215"
   inkscape:cy="13.835448"
   inkscape:window-x="0"
   inkscape:window-y="0"
   inkscape:window-maximized="0"
   inkscape:current-layer="svg39" />
	<style
   type="text/css"
   id="style2">
	<![CDATA[
		.st1 {fill:#eb008b;stroke:none;stroke-linecap:butt;stroke-width:12.24}
		.st2 {fill:#ff8c00;stroke:none;stroke-linecap:butt;stroke-width:12.24}
		.st3 {fill:#ffffff;stroke:none;stroke-linecap:butt;stroke-width:12.24}
		.st4 {fill:none;fill-rule:evenodd;font-size:12px;overflow:visible;stroke-linecap:square;stroke-miterlimit:3}
	]]>
	</style>

	<g
   id="g37"
   transform="translate(-12.240083,-12.23825)">
		<title
   id="title4">Page-1</title>
		<g
   id="group13256-1"
   transform="translate(12.24,-34.0157)">
			<title
   id="title6">Application Insights Failure.13256</title>
			<g
   id="group13257-2">
				<title
   id="title8">Sheet.13257</title>
				<g
   id="shape13258-3"
   transform="translate(0,-6.48605)">
					<title
   id="title10">Sheet.13258</title>
					<path
   d="M 0,59.95 H 7.31 V 88.78 H 0 Z m 14.61,-7.21 h 7.31 v 36.04 h -7.31 z m 14.61,10.09 h 7.31 v 25.95 h -7.31 z m 14.61,-5.76 h 7.31 v 31.71 h -7.31 z"
   class="st1"
   id="path12"
   inkscape:connector-curvature="0"
   style="fill:#eb008b;stroke:none;stroke-width:12.23999977;stroke-linecap:butt" />
				</g>
				<g
   id="shape13259-5"
   transform="translate(23.2324,-1.00894)">
					<title
   id="title15">Sheet.13259</title>
					<path
   d="M 3.51,88.78 C 2.19,88.78 1.17,88.2 0.58,87.05 0,85.89 0,84.6 0.58,83.59 l 6.43,-11.1 6.43,-10.52 c 0.73,-1.16 1.76,-1.73 2.92,-1.73 1.17,0 2.2,0.57 2.78,1.73 L 32,83.73 c 0.73,1.15 0.73,2.45 0.15,3.46 -0.59,1.01 -1.76,1.59 -3.07,1.59 z"
   class="st2"
   id="path17"
   inkscape:connector-curvature="0"
   style="fill:#ff8c00;stroke:none;stroke-width:12.23999977;stroke-linecap:butt" />
				</g>
				<g
   id="shape13260-7"
   transform="translate(22.0635)">
					<title
   id="title20">Sheet.13260</title>
					<path
   d="m 17.39,60.09 c 0.73,0 1.46,0.44 2.04,1.3 l 6.43,10.95 6.43,10.81 c 1.02,1.73 0,3.75 -2.04,3.75 H 4.68 C 2.63,86.9 1.61,84.88 2.63,83.15 L 9.06,71.91 15.49,61.39 c 0.44,-0.86 1.17,-1.3 1.9,-1.3 z m 0,-1.87 c -1.46,0 -2.92,0.86 -3.66,2.16 L 7.31,70.9 0.88,82.15 c -0.88,1.44 -0.88,3.02 0,4.46 0.73,1.3 2.19,2.17 3.8,2.17 H 30.1 c 1.61,0 3.07,-0.87 3.8,-2.17 0.73,-1.29 0.73,-3.02 -0.15,-4.46 L 27.32,71.34 20.89,60.38 c -0.58,-1.3 -2.04,-2.16 -3.5,-2.16 z"
   class="st3"
   id="path22"
   inkscape:connector-curvature="0"
   style="fill:#ffffff;stroke:none;stroke-width:12.23999977;stroke-linecap:butt" />
				</g>
				<g
   id="shape13261-9"
   transform="translate(37.4056,-6.05365)">
					<title
   id="title25">Sheet.13261</title>
					<ellipse
   cx="2.04562"
   cy="86.757599"
   rx="2.04562"
   ry="2.01788"
   class="st3"
   id="ellipse27"
   style="fill:#ffffff;stroke:none;stroke-width:12.23999977;stroke-linecap:butt" />
				</g>
				<g
   id="shape13262-11"
   transform="translate(37.6979,-10.9542)">
					<title
   id="title30">Sheet.13262</title>
					<path
   d="M 2.19,79.12 H 0 l 0.58,9.66 H 3.21 L 3.8,79.12 Z"
   class="st3"
   id="path32"
   inkscape:connector-curvature="0"
   style="fill:#ffffff;stroke:none;stroke-width:12.23999977;stroke-linecap:butt" />
				</g>
			</g>
		</g>
	</g>
</svg>

<?xml version="1.0" encoding="UTF-8" standalone="no"?>
<!DOCTYPE svg PUBLIC "-//W3C//DTD SVG 1.1//EN" "http://www.w3.org/Graphics/SVG/1.1/DTD/svg11.dtd">
<!-- Generated by Microsoft Visio, SVG Export Application Insights Failure.svg Page-1 -->
<svg xmlns="http://www.w3.org/2000/svg" xmlns:xlink="http://www.w3.org/1999/xlink" xmlns:ev="http://www.w3.org/2001/xml-events"
		width="1.12463in" height="1.23299in" viewBox="0 0 80.9733 88.7754" xml:space="preserve" color-interpolation-filters="sRGB"
		class="st4">
	<style type="text/css">
	<![CDATA[
		.st1 {fill:#eb008b;stroke:none;stroke-linecap:butt;stroke-width:12.24}
		.st2 {fill:#ff8c00;stroke:none;stroke-linecap:butt;stroke-width:12.24}
		.st3 {fill:#ffffff;stroke:none;stroke-linecap:butt;stroke-width:12.24}
		.st4 {fill:none;fill-rule:evenodd;font-size:12px;overflow:visible;stroke-linecap:square;stroke-miterlimit:3}
	]]>
	</style>

	<g>
		<title>Page-1</title>
		<g id="group12963-1" transform="translate(12.24,-34.0157)">
			<title>Application Insights Failure.12963</title>
			<g id="group12964-2">
				<title>Sheet.12964</title>
				<g id="shape12965-3" transform="translate(0,-6.48605)">
					<title>Sheet.12965</title>
					<path d="M0 59.95 L7.31 59.95 L7.31 88.78 L0 88.78 L0 59.95 ZM14.61 52.74 L21.92 52.74 L21.92 88.78 L14.61 88.78
								 L14.61 52.74 ZM29.22 62.83 L36.53 62.83 L36.53 88.78 L29.22 88.78 L29.22 62.83 ZM43.83 57.07 L51.14
								 57.07 L51.14 88.78 L43.83 88.78 L43.83 57.07 Z" class="st1"/>
				</g>
				<g id="shape12966-5" transform="translate(23.2324,-1.00894)">
					<title>Sheet.12966</title>
					<path d="M3.51 88.78 C2.19 88.78 1.17 88.2 0.58 87.05 C0 85.89 0 84.6 0.58 83.59 L7.01 72.49 L13.44 61.97 C14.17
								 60.81 15.2 60.24 16.36 60.24 C17.53 60.24 18.56 60.81 19.14 61.97 L32 83.73 C32.73 84.88 32.73 86.18
								 32.15 87.19 C31.56 88.2 30.39 88.78 29.08 88.78 L3.51 88.78 Z" class="st2"/>
				</g>
				<g id="shape12967-7" transform="translate(22.0635,-1.98952E-13)">
					<title>Sheet.12967</title>
					<path d="M17.39 60.09 C18.12 60.09 18.85 60.53 19.43 61.39 L25.86 72.34 L32.29 83.15 C33.31 84.88 32.29 86.9
								 30.25 86.9 L4.68 86.9 C2.63 86.9 1.61 84.88 2.63 83.15 L9.06 71.91 L15.49 61.39 C15.93 60.53 16.66
								 60.09 17.39 60.09 ZM17.39 58.22 C15.93 58.22 14.47 59.08 13.73 60.38 L7.31 70.9 L0.88 82.15 C0 83.59
								 0 85.17 0.88 86.61 C1.61 87.91 3.07 88.78 4.68 88.78 L30.1 88.78 C31.71 88.78 33.17 87.91 33.9 86.61
								 C34.63 85.32 34.63 83.59 33.75 82.15 L27.32 71.34 L20.89 60.38 C20.31 59.08 18.85 58.22 17.39 58.22
								 Z" class="st3"/>
				</g>
				<g id="shape12968-9" transform="translate(37.4056,-6.05365)">
					<title>Sheet.12968</title>
					<ellipse cx="2.04562" cy="86.7576" rx="2.04562" ry="2.01788" class="st3"/>
				</g>
				<g id="shape12969-11" transform="translate(37.6979,-10.9542)">
					<title>Sheet.12969</title>
					<path d="M2.19 79.12 L0 79.12 L0.58 88.78 L3.21 88.78 L3.8 79.12 L2.19 79.12 Z" class="st3"/>
				</g>
			</g>
		</g>
	</g>
</svg>
